X: 30
U:~=!turn!
M:C
L:1/8
K:D
(f/2g/2) | {/^g}a>f{/c}d>f {/g}a>f{/c}d>f | {gf}e>de>f e/2e/2e e(f/2g/2) | {/^g}a>f{/c}d>f {/g}a<ba>f | {gf}e<de>f d/2d/2d (df/2g/2) |
{/^g}a>f{/c}d>f {/g}a<fd>f | {/f}e<de>f e/2e/2e {/f}e2 | d<ff>d {gf}e>Bd>A | B<{/c}dA>F D/2D/2D {FE}D |]


